X:18318
T:Virginia Reel, The
S:Keane / Molloy, {\it Contentment Is Wealth}
D:GLCD 1058
N:Transcribed by Alan Ng.
Z: id:ng-reels-37 transcribed by Alan Ng agng@students.wisc.edu Feb. 21, 2000
R:reel
M:C|
K:D
DBBA ~B3A|BAdB AFEF|D~F3 A3B|AFBF AFEF|DBBA ~B3A|BAdB ABde|fgfe defe|dBAF B~E3::\
defe d3A|BAFA DAFA|defe defg|a2bf afeg|fedf efdB|A~F3 ABde|fgfe defe|dBAF B~E3:|**
